icon/pk/knife-fork.svg

<svg width="48" height="48" fill="none" xmlns="http://www.w3.org/2000/svg"><path d="M14 4v40M8 5v10c0 5 6 5 6 5s6 0 6-5V5" stroke="#000" stroke-width="4" stroke-linecap="round" stroke-linejoin="round"/><path d="M30 12c0-8 8-8 8-8v17h-8v-9Z" fill="#2F88FF"/><path d="M38 21h-8v-9c0-8 8-8 8-8v17Zm0 0v23" stroke="#000" stroke-width="4" stroke-linecap="round" stroke-linejoin="round"/></svg>

<svg viewBox="0 0 48 48" fill="none" xmlns="http://www.w3.org/2000/svg" height="1em" width="1em">
  <path d="M14 4V44" stroke="black" stroke-width="4" stroke-linecap="round" stroke-linejoin="round"/>
  <path d="M8 5V15C8 20 14 20 14 20C14 20 20 20 20 15V5" stroke="black" stroke-width="4" stroke-linecap="round" stroke-linejoin="round"/>
  <path d="M30 12C30 4 38 4 38 4V21H30V12Z" fill="#2F88FF"/>
  <path d="M38 21H30V12C30 4 38 4 38 4V21ZM38 21V44" stroke="black" stroke-width="4" stroke-linecap="round" stroke-linejoin="round"/>
</svg>
